!!!!SEGMENT: pl-kk--kk-i-636--003-010_anonim--in-sabbato-sancto-responsorium-7mum.krn
!!!cenid: 18xx:4556
!!!COM: Anonim
!!!COM-rismID: pe30004985
!!!CDT:
!!!CNT:
!!!OPR: In Sabbato Sancto
!!!OTL: Responsorium 7mum
!!!OMV: 010
!!!PDT:
!!!AGN: Sacred
!!!YEC: Copyright 2022 Narodowy Instytut Fryderyka Chopina (https://polishscores.org)
!!!YEM: License CC-BY-4.0 (https://creativecommons.org/licenses/by/4.0)
!!!SMS-siglum: PL-Kk
!!!SMS-shelfmark: Kk.I.636
!!!SMS-variant:
!!!SMS-altvar:
!!!SMS-shelfwork: 003-010 M
!!!NIFC-rismSourceID: 1001216440
!!!NIFC-rismChildID: 1001216935
!!!NIFC-islandoraID: pl-kk:40786
!!!URL-pdf-islandora: https://repozytorium.nifc.pl/islandora/object/pl-kk%3A40786/datastream/PDF/view
!!!URL-scan: https://polish.musicsources.pl/pl/lokalizacje/galeria/rekopisy/7271/1 @EN{Scan on Polish Music Sources Website} @PL{Skany w portalu Dziedzictwo Muzyki Polskiej w otwartym dostępie}
!!!IIIF:
!!!ONB-nifc: UWAGA: Lamentacje i Responsoria In Sabbato Sancto na skanach: S – 15-20, A – 37-42, T – 60-66, B - 86-92. Każda Lamentacja i Responsorium to oddzielne pliki.
!!!AIN: 1 alto 1 bass 1 soprn 1 tenor
!!!key:
**kern	**text	**kern	**text	**kern	**text	**kern	**text
*part4	*part4	*part3	*part3	*part2	*part2	*part1	*part1
*staff4	*staff4	*staff3	*staff3	*staff2	*staff2	*staff1	*staff1
*I"Basso	*	*I"Tenore	*	*I"Alto	*	*I"Soprano	*
*I'B.	*	*I'T.	*	*I'A.	*	*I'S.	*
*Ibass	*	*Itenor	*	*Ialto	*	*Isoprn	*
*ICvox	*	*ICvox	*	*ICvox	*	*ICvox	*
*clefF4	*	*clefC4	*	*clefC3	*	*clefC1	*
*k[b-]	*	*k[b-]	*	*k[b-]	*	*k[b-]	*
*d:	*	*d:	*	*d:	*	*d:	*
*M3/4	*	*M3/4	*	*M3/4	*	*M3/4	*
=1	=1	=1	=1	=1	=1	=1	=1
8.D\	As-	8.d\	As-	8.f\	As-	8.a\	As-
16D\	-ti-	16d\	-ti-	16f\	-ti-	16a\	-ti-
8D\	-te-	8d\	-te-	8f\	-e-	8a\	-te-
8D\	-runt	8d\	-runt	8f\	-runt	8a\	-runt
8D\	re-	8d\	re-	8f\	re-	8a\	re-
8D\	-ges	8d\	-ges-	8f\	-ges	8a\	-ges
!LO:LB:g=original	!	!LO:LB:g=original	!	!LO:LB:g=original	!	!LO:LB:g=original	!
=2	=2	=2	=2	=2	=2	=2	=2
4F\	te-	4d\	-ter-	4a\	ter-	4dd\	ter-
4F\	-rae	4d\	-rae	4a\	-rae	4dd\	-rae
4r	.	4r	.	4r	.	4r	.
=3	=3	=3	=3	=3	=3	=3	=3
4B-\	et	4d\	et	4g\	et	4dd\	et
8.B-\	prin-	8.d\	prin-	8.g\	Prin-	8.dd\	prin-
16B-\	-ci-	16d\	-ci-	16g\	-ci-	16dd\	-ci-
8B-\	-pes	8d\	-pes	8g#X\	-pes	8ee\	-pes
16B-\	con-	16d\	con-	16g#\	con-	16ee\	con-
16B-\	-ve-	16d\	-ve-	16g#\	-ve-	16ee\	-ve-
=4	=4	=4	=4	=4	=4	=4	=4
4A\	-ne-	4c#X\	-ne-	4a\	-ne-	4ee\	-ne-
4A\	-runt	4c#\	-runt	4a\	-runt	4ee\	-runt
8r	.	8r	.	8r	.	8r	.
8A\	in	8cn\	in	8e\	in	8ee\	in
!	!	!	!	!	!	!LO:LB:g=original	!
=5	=5	=5	=5	=5	=5	=5	=5
*2\right	*	*2\right	*	*2\right	*	*2\right	*
2A\	u-	2c\	u-	2e\	u-	2ee\	u-
4AA/	-num,	4A\	-num	4e\	-num	4ccn\	-num
!LO:LB:g=original	!	!LO:LB:g=original	!	!LO:LB:g=original	!	!	!
=6	=6	=6	=6	=6	=6	=6	=6
4F\	ad-	4A\	ad-	4d#X\	ad-	4cc\	ad-
4F\	-ver-	4A\	-ver-	4d#\	-ver-	4bn\	-ver-
4F\	-sus	4A\	-sus	4d#\	-sus	4a\	-sus
=7	=7	=7	=7	=7	=7	=7	=7
8E\	Do-	8Bn\	Do-	8e\	Do-	8a\	Do-
8E\	-mi-	8B\	-mi-	8e\	-mi-	8g#X\	-mi-
4E\	-num	4B\	-num,	4e\	-num,	4g#\	-num,
4r	.	4r	.	4r	.	4r	.
=8	=8	=8	=8	=8	=8	=8	=8
8r	.	8r	.	8r	.	8r	.
8E\	et	8Bn\	et	8dn\	et	8g#X\	et
4F\	.	2B\	ad-	4d\	ad-	2g#\	ad-
4E\	ad-	.	.	4e\	.	.	.
!	!	!	!	!	!	!LO:LB:g=original	!
=9	=9	=9	=9	=9	=9	=9	=9
4.D\	-ver-	4.Bn\	-ver-	4.f\	-ver-	4.g#X\	-ver-
8D\	-sus	8B\	-sus	8f\	-sus	8g#\	-sus
8C/	Chris-	8A\	Chri-	8e\	Chri-	8a\	Chri-
8BBn/	-tum	8G#X/	-stum	8e\	-stum	8bn\	-stum
!LO:LB:g=original	!	!LO:LB:g=original	!	!LO:LB:g=original	!	!	!
=10	=10	=10	=10	=10	=10	=10	=10
4AA/	e-	4A\	e-	4e\	e-	4cc\	e-
4AA/	-jus,	4A\	-jus,	4e\	-jus,	4cc\	-jus,
4r	.	4r	.	4r	.	4r	.
=11	=11	=11	=11	=11	=11	=11	=11
2A\	qua-	2c\	qua-	4e\	qua-	2cc\	qua-
.	.	.	.	4f\	.	.	.
4G\	-re	4B-X\	-re	4e\	-re	4cc\	-re
=12	=12	=12	=12	=12	=12	=12	=12
2F\	fre-	2A\	fre-	2f\	fre-	2cc\	fre-
4F\	-mu-	4A\	-mu-	4f\	-mu-	4cc\	-mu-
!	!	!	!	!	!	!LO:LB:g=original	!
=13	=13	=13	=13	=13	=13	=13	=13
2E\	-e-	2A\	-e-	2g\	-e-	2cc#\	-e-
4E\	-runt	4A\	-runt	4g\	-runt	4cc#\	-runt
=14	=14	=14	=14	=14	=14	=14	=14
4D\	gen-	4A\	gen-	4f\	gen-	2dd\	gen-
4D\	-tes,	4A\	-tes	4f\	-tes,	.	.
4r	.	4r	.	4r	.	4dd\	-tes
!	!	!	!	!LO:LB:g=original	!	!	!
=15	=15	=15	=15	=15	=15	=15	=15
4r	.	4r	.	4r	.	2.ff\	et
4r	.	4r	.	4r	.	.	.
4D\	et	4d\	et	4f\	et	.	.
!LO:LB:g=original	!	!LO:LB:g=original	!	!	!	!	!
=16	=16	=16	=16	=16	=16	=16	=16
8B-\	po-	8d\	po-	8g\	po-	8ff\	po-
8B-\	-pu-	8d\	-pu-	8g\	-pu-	8ff\	-pu-
4B-\	-li	4d\	-li	4g\	-li	4ee\	-li
8B-\	me-	8d\L	me-	8g#X\	me-	8dd\	me-
8B-\	-di-	8e\J	-di-	8g#\	-di-	8dd\	-di-
=17	=17	=17	=17	=17	=17	=17	=17
2A\	-ta-	2f\	-ta-	2a\	-ta-	2dd\	-ta-
4A\	-ti	4e\	-ti	8a\L	-ti	4cc#X\	-ti
.	.	.	.	8gn\J	.	.	.
!	!	!	!	!	!	!LO:LB:g=original	!
=18	=18	=18	=18	=18	=18	=18	=18
2D\	sunt	2d\	sunt	2f#X\	sunt	2ccn\	sunt
4D\	i-	4d\	in-	4f#\	in-	4cc\	i-
!	!	!	!	!LO:LB:g=original	!	!	!
=19	=19	=19	=19	=19	=19	=19	=19
4G\	-na-	4d\	-a-	2g\	-na-	2b-X\	-na-
4E\	.	4c#X\	.	.	.	.	.
4D\	-ni-	4d\	-ni-	4g\	-ni-	4b-\	-ni-
=20	=20	=20	=20	=20	=20	=20	=20
4C#X/	-a,	4e\	-a,	4g\	-a,	4a\	-a,
(4D/	ad-	4d\	ad-	4fn\	ad-	2a\	ad-
4Cn/)	.	4A\	.	4e\	.	.	.
!LO:LB:g=original	!	!LO:LB:g=original	!	!	!	!	!
=21	=21	=21	=21	=21	=21	=21	=21
2BB-/	-ver-	4B-\	-ver-	2d\	-ver-	4a\	-ver-
.	.	8D/L	.	.	.	4g\	.
.	.	8E/J	.	.	.	.	.
4AA/	-sus	4F/	-sus	4d\	-sus	4f\	-sus
=22	=22	=22	=22	=22	=22	=22	=22
8GG/	Do-	8G/	Do-	8B-/	Do-	4f/	Do-
8GG/	-mi-	8G/	-mi-	8B-/	-mi-	.	.
2GG/	-num,	2G/	-num	2B-/	-num	4e/	-mi-
.	.	.	.	.	.	4d/	-num
!	!	!	!	!LO:TX:a:t=V.S.	!	!LO:LB:g=original	!
!	!	!	!	!LO:PB:g=original	!	!	!
=23	=23	=23	=23	=23	=23	=23	=23
2AA/	et	4F/	et	4A/	et	2d/	et
.	.	4G/	.	2B-/	ad-	.	.
4AA/	ad-	4F/	ad-	.	.	4d/	ad-
=24	=24	=24	=24	=24	=24	=24	=24
2AA/	-ver-	2E/	-ver-	4B-/	-ver-	2c#X/	-ver-
.	.	.	.	2A/	-sus	.	.
4AA/	-sus	4G/	-sus	.	.	4c#/	-sus
=25	=25	=25	=25	=25	=25	=25	=25
8D\	Chri-	4F/	Chri-	4A/	Chri-	4d/	Chri-
8D\	-stum,	.	.	.	.	.	.
4r	.	4.F#X/	.	4.d\	.	4.dd\	.
4r	.	.	.	.	.	.	.
.	.	8F#/	-stum	8d\	-stum	8a\	-stum
=26	=26	=26	=26	=26	=26	=26	=26
4r	.	4G/	e-	4d\	e-	4b-\	e-
4.B-\	et	4G/	-jus,	4d\	-jus,	4b-\	-jus,
.	.	4r	.	4r	.	4r	.
8G\	.	.	.	.	.	.	.
!LO:LB:g=original	!	!LO:LB:g=original	!	!	!	!	!
=27	=27	=27	=27	=27	=27	=27	=27
4D\	ad-	4F/	et	4.d\	et	4a\	et
4D\	-ver-	4F/	ad-	.	.	4a\	ad-
.	.	.	.	8d\	ad-	.	.
4D\	-sus	8.F/	-ver-	8.d\	-ver-	8dd\	-ver-
.	.	.	.	.	.	8a\	-sus
.	.	16F/	-sus	16d\	-sus	.	.
!	!	!	!	!LO:LB:g=original	!	!LO:LB:g=original	!
=28	=28	=28	=28	=28	=28	=28	=28
4D\	Chri-	2G/	Chri-	4d\	Chri-	2b-\	Chri-
4B-\	.	.	.	4g\	.	.	.
4G\	-stum	8G/L	-stum	4g\	-stum	4b-\	-stum
.	.	8B-/J	.	.	.	.	.
=29	=29	=29	=29	=29	=29	=29	=29
2.D\	e-	2.d\	e-	2.f#X\	e-	2.a\	e-
=30	=30	=30	=30	=30	=30	=30	=30
2D\	-jus.	2d\	-jus.	2f#X\	-jus.	2a\	-jus.
4r	.	4r	.	4r	.	4r	.
=31	=31	=31	=31	=31	=31	=31	=31
!LO:TX:b:t=2.	!	!LO:TX:a:t=2	!	!LO:TX:a:t=2	!	!LO:TX:a:t=2	!
2.r	.	2.r	.	2.r	.	2.r	.
=32	=32	=32	=32	=32	=32	=32	=32
2.r	.	2.r	.	2.r	.	2.r	.
==	==	==	==	==	==	==	==
*-	*-	*-	*-	*-	*-	*-	*-
!!!system-decoration: [(s1,s2,s3,s4)]
!!!ENC: Berenika Jozajtis
!!!END: 2023-11-18
!!!ENC: Leszek Kubiak
!!!END: 2024-10-09
